projects/seb-pictograms/svg/light/49-Picto-Light_black.svg

<svg xmlns="http://www.w3.org/2000/svg" viewBox="0 0 170 170"><path d="M143.9 37.8H26.1A10.1 10.1 0 0016 47.9V122a10.1 10.1 0 0010.1 10.1h117.8a10.1 10.1 0 0010.1-10V47.9a10.1 10.1 0 00-10.1-10.1zm-117.8 3h117.8a7.1 7.1 0 017.1 7.1v10.7H19V47.9a7.1 7.1 0 017.1-7.1zm117.8 88.4H26.1a7.1 7.1 0 01-7.1-7.1V61.6h132V122a7.1 7.1 0 01-7.1 7.2z"/><path d="M114 106h18.9v3H114zm-78.7 0h18.9v3H35.3zm0-17.2h38v3h-38z"/></svg>

<svg id="PIKTO_LIGHT" xmlns="http://www.w3.org/2000/svg" viewBox="0 0 170 170"><title>light_black</title><path d="M143.9,37.8H26.1A10.1,10.1,0,0,0,16,47.9v74.1a10.1,10.1,0,0,0,10.1,10.1H143.9A10.1,10.1,0,0,0,154,122.1V47.9A10.1,10.1,0,0,0,143.9,37.8Zm-117.8,3H143.9a7.1,7.1,0,0,1,7.1,7.1V58.6H19V47.9A7.1,7.1,0,0,1,26.1,40.8Zm117.8,88.4H26.1a7.1,7.1,0,0,1-7.1-7.1V61.6H151v60.4A7.1,7.1,0,0,1,143.9,129.2Z"/><rect x="114" y="106" width="18.9" height="3"/><rect x="35.3" y="106" width="18.9" height="3"/><rect x="35.3" y="88.8" width="38" height="3"/></svg>
